X:775
T:Tobin's Favorite.
C:Tobin.
B:O'Neill's Music of Ireland
N:O'Neill's - 775
Z:Transcribed by Stephen Foy (shf@access.digex.net)
Z:abc 1.6
M:6/8
R:Jig
K:D
A/F/|DFA dcd|ecA cde|fdf agfg|ecA GFE|\
DFA dcd|ecA efg|f/g/af gec|edc d2:|
||d|dfa agf|e/f/ge efg|fdf agfg|ecA GFE|\
DFA dcd|ecA efg|f/g/af gec|edc d2:|
